X:546
T:BAdd546-  Mall Sims
S:melody only, BL MS 30486, via J. Ward, JAMS, XX, 1967 
Q:1/4=120
L:1/4
M:C|
K:D dorian
A2f2|e3a|gfed|^cAA2|\
fdeA|GFED|B3/2A/B^c|d4|\
fged|d/f/e/d/^cA|FAEG|D/F/E/D/ ^CA,|\
D/E/F/G/ A/F/D|D/E/F/G/ A/F/D|F/G/A/B/ c/A/F|F/G/A/B/ c/A/F|\
A3/4A/4 B/4c/4d/4e/4f2|e3/2d/ ^c/B/A|B/c/dd^c|dDD2|]
